X: 725
T: Baowei hao shiguang
%%abc-version 2.0
%%abcx-abcm2ps-target-version 5.9.1 (29 Sep 2008)
%%abc-creator hum2abc beta
%%abcx-conversion-date 2013/10/02 07:52:30
%%abc-edited-by Helmut Schaffrath
%%humdrum-veritas 2990826800
%%humdrum-veritas-data 2124249343
%%continueall 1
%%barnumbers 0
L: 1/8
M: 4/4
K: F
F F E D F CC2 [I:setbarnb 1]| 
A c d fc4 | 
A cd2dc2A | 
c A G AG4 | 
c A D FG2G A | 
c A c dF4 | 
D FG2AG2D | 
F D C DC4 | 
c A D FG2G A | 
c A c dF4 | 
D FG2AG2D | 
F D C DC4 |]  



